X:69
T:John Ryan's Polka
M:4/4
L:1/4
K:D
A | "D"d "D"d "--"B/2c/2d/2B/2 | "D"A F A F | "D"d "D"d "--"B/2c/2d/2B/2 |  "D"A F E D | 
"D"d "D"d "--"B/2c/2d/2B/2 | "D"A F A d/2e/2 | "D"f d "A7"e c | "D"d3 :|]
[|: d/2e/2 | "D"f d d e/2f/2 | "G"g f "A7"e d/2e/2 | "D"f d A d/2e/2 | "D"f d "A7" a3/2 g/2 | 
"D"f d d e/2f/2 | "G"g f "A7"e d/2e/2 | "D"f d "A7"e c | "D"d3 :|]

%%newpage

